X: 443
T: Bu Gönül Ne Gülde...
C: Sarı Onnik
O: Turkey
F: http://compmusic.upf.edu/node/140
N: kurdilihicazkar--sarki--agiraksak--bu_gonul--sari_onnik
N: makam= kurdilihicazkar
N: form= sarki
N: usul= agiraksak = 9/4
M: 9/4
L: 1/16
K: C _B _e _A 
Q: 1/4=72
%%MIDI tuningsystem comma53
G3A B2c2 d2e2 f2g2 (3a2g2f2 e2f2 g8 z4  | \
w:  ARANAĞME  | 
(3=b2c'2d'2 (3e'2d'2c'2 b3a g2f2 f2=e2 e2d2 d8 z4  | 
w:   | 
c3d efg2 f2a2 g2f2 e2d2 c2d2 B2c2 B2A2 G2F2  | \
w:   | 
(3B2c2c2 (3c2c2c2 (3B2c2d2 (3e2d2c2 B3A A3G G8 z4  | 
w:   | 
G3A B2c2 d2e2 f2g2 (3a2g2f2 e2f2 g8 z4  | \
w:  ARANAĞME  | 
(3=b2c'2d'2 (3e'2d'2c'2 b3a g2f2 f2=e2 e2d2 d8 z4  | 
w:   | 
c3d efg2 f2a2 g2f2 e2d2 c2d2 B2c2 B2A2 G2F2  | \
w:   | 
(3B2c2c2 (3c2c2c2 (3B2c2d2 (3e2d2c2 B3A A3G G8 z4  | 
w:   | 
z8 z4 c2c2 g8 g3=a b2{c'}ba a3g  | \
w:  Bu  gö nül  ne   | 
g2=ag f=ef2 z2g4a2 g2f2 e2gf e4 f6z2  | 
w:  *  *  *  *  *  *  gül de  ne  *  *  *  *  gül  | 
g4 a4 a2=b2 a2g2 a3g f4 g2a2 b3a a3g  | \
w:  şen  *  *  *  *  *  *  *  *  şen *  *  *  de  | 
g8 g2a2 g2f2 g3f =efga f2g4f2 =b2ag  | 
w:  dir  *  *  *  *  câ *  *  *  *  *  nım   *  SAZ  | 
gfga =babc' d'2g4d'2 c'2_1/4b2 a2g2 g2a2 g2a2 g2f2  | 
w:  *  *  *  *  *  *  *  *  *  Sen de dir  *  *  *  dî  | 
g4 f2=e2 =b3a a2g2 g3f f3e g4 f2_e2 e2d2  | \
w:  vâ *  *  *  *  ne  *  gön *  *  *  lüm   | 
z4 d2e2 f2g2 =a3g g2f4=e2 gfed c4 _a3g  | 
w:  sen *  *  *  *  *  *  *  *  *  *  *  *  *  de  | 
f4 g4 g2a2 g2f2 g3f =efga f2g4f2 =baag  | \
w:  dir  *  SAZ *  *  *  câ *  *  *  *  *  nım    | 
a8 z2a4a2 a2g4f2 g3f e3d c4  | 
w:  *  Sen de dir  *  *  dî  | 
d2e2 f2a2 g2f2 e2d2 c3B c2d2 B2c2 B2A2 G4  | \
w:  vâ *  *  *  *  *  ne  *  gön *  *  *  lüm   | 
c4 d4 d2e2 f2g2 f2{a}gf edc2 B2{d}c2 B3A A3G  | 
w:  sen *  *  *  *  *  *  *  *  *  *  *  *  *  *  *  *  *  de  | 
G8 d2e2 d2c2 d3c =Bcde c2d4c2 f2ed  | \
w:  dir   SAZ  | 
d8 z2c4d2 d2e2 f2g2 g3f e3d c4  | 
w:  *  Kim se ye  *  *  *  ne   | 
(3c2B2c2 d3B (3B2A2B2 c3A (3A2G2A2 B2AG G8 z4  | \
w:  ben *  *  *  *  de  *  *  *  *  ne  *  *  *  *  *  ef  | 
g4 a4 a2=b2 a2g2 a3g f4 g2a2 b3a a3g  | 
w:  ke *  *  *  *  *  *  *  *  ken *  *  *  de  | 
g8 g2a2 g2f2 g3f =efga f2g4f2 =b2ag  | \
w:  dir  *  *  *  *  câ *  *  *  *  *  nım    | 
gfga =babc' d'2g4d'2 c'2_1/4b2 a2g2 g2a2 g2a2 g2f2  | 
w:  *  *  *  *  *  *  *  *  *  Sen de dir  *  *  *  dî  | 
g4 f2=e2 =b3a a2g2 g3f f3e g4 f2_e2 e2d2  | \
w:  vâ *  *  *  *  ne  *  gön *  *  *  lüm   | 
z4 d2e2 f2g2 =a3g g2f4=e2 gfed c4 _a3g  | 
w:  sen *  *  *  *  *  *  *  *  *  *  *  *  *  de  | 
f4 g4 g2a2 g2f2 g3f =efga f2g4f2 =baag  | \
w:  dir  *  SAZ *  *  *  câ *  *  *  *  *  nım    | 
a8 z2a4a2 a2g4f2 g3f e3d c4  | 
w:  *  Sen de dir  *  *  dî  | 
d2e2 f2a2 g2f2 e2d2 c3B c2d2 B2c2 B2A2 G4  | \
w:  vâ *  *  *  *  *  ne  *  gön *  *  *  lüm   | 
c4 d4 d2e2 f2g2 f2{a}gf edc2 B2{d}c2 B3A A3G  | 
w:  sen *  *  *  *  *  *  *  *  *  *  *  *  *  *  *  *  *  de  | 
G8 |
w:  dir    | 


